static/images/web.svg

<svg height="100" viewBox="0 0 100 100" width="100" xmlns="http://www.w3.org/2000/svg" xmlns:xlink="http://www.w3.org/1999/xlink"><defs><circle id="a" cx="35" cy="35" r="35"/><filter id="b" height="174.3%" width="174.3%" x="-37.1%" y="-31.4%"><feOffset dx="0" dy="4" in="SourceAlpha" result="shadowOffsetOuter1"/><feGaussianBlur in="shadowOffsetOuter1" result="shadowBlurOuter1" stdDeviation="8"/><feColorMatrix in="shadowBlurOuter1" type="matrix" values="0 0 0 0 0.254901961   0 0 0 0 0.458823529   0 0 0 0 0.647058824  0 0 0 0.24 0"/></filter><linearGradient id="c" x1="0%" x2="149.460671%" y1="0%" y2="71.875%"><stop offset="0" stop-color="#00eaf8"/><stop offset="1" stop-color="#6d42ef"/></linearGradient></defs><g fill="none" fill-rule="evenodd" transform="translate(15 15)"><g fill-rule="nonzero"><use fill="#000" filter="url(#b)" xlink:href="#a"/><use fill="#fff" fill-rule="evenodd" xlink:href="#a"/></g><path d="m51.3125 41.8125h-16.59375c-.4659903 0-.84375-.3777597-.84375-.84375s.3777597-.84375.84375-.84375h16.59375v-2.25h-16.59375c-.4659903 0-.84375-.3777597-.84375-.84375s.3777597-.84375.84375-.84375h16.59375v-2.25h-16.59375c-.4659903 0-.84375-.3777597-.84375-.84375s.3777597-.84375.84375-.84375h16.59375v-3.9375h-27.28125c-.4659903 0-.84375-.3777597-.84375-.84375s.3777597-.84375.84375-.84375h27.28125v-3.9375h-32.625v29.8125h32.625zm-33.5031645-20.8125h34.381329c.4461739 0 .8093355.3630221.8093355.809196v31.5689685c0 .4461739-.3631616.8093355-.8093355.8093355h-34.381329c-.4463134 0-.8093355-.3631616-.8093355-.8093355v-31.5689685c0-.4461739.3630221-.809196.8093355-.809196zm6.5031645 3.6568322c0 .2210896-.0895438.4383949-.2456266.5960249-.1598684.1574845-.3776855.2471429-.598997.2471429-.2210203 0-.438255-.089804-.596085-.2462696-.157102-.1585033-.2467914-.3756631-.2467914-.5968982 0-.2216718.0895438-.4394137.2457722-.5973348.158558-.1574845.3757927-.2469974.5971042-.2469974.2217483 0 .4395654.0895129.5978322.2455419.1572476.1593766.2467914.3772641.2467914.5987903zm2.0029423.5956174c-.1562661.1571356-.373933.2475504-.5969833.2475504-.2227593 0-.4402807-.0904148-.5965468-.2479865-.1568482-.1565542-.2469122-.3741601-.2469122-.5964176 0-.22124.090064-.4384099.2470577-.5959816.1555387-.1568449.37306-.2471143.5964013-.2471143.2229048 0 .4404262.090124.5971288.2472597.1568482.1574263.2469122.3745962.2469122.5958362 0 .2222575-.090064.4398634-.2470577.5968537zm1.6524347.2475504c-.2204313 0-.4376617-.0896584-.5959648-.2459785-.1572847-.1587944-.2469122-.3763908-.2469122-.5983537 0-.220944.089482-.4382493.2456027-.5961704.1591761-.1574845.3764065-.2469974.5972743-.2469974.2218863 0 .4395532.0895129.5971288.245833.1575757.1583577.2474942.3758086.2474942.5973348 0 .2225451-.090064.4404326-.2470577.5976259-.1584486.1569023-.3761155.2467063-.5975653.2467063z" fill="url(#c)"/></g></svg>

<?xml version="1.0" encoding="UTF-8"?>
<svg width="100px" height="100px" viewBox="0 0 100 100" version="1.1" xmlns="http://www.w3.org/2000/svg" xmlns:xlink="http://www.w3.org/1999/xlink">
    <!-- Generator: sketchtool 46.2 (44496) - http://www.bohemiancoding.com/sketch -->
    <title>327E123D-2D40-430B-97EC-9DBCAFCBC9F0</title>
    <desc>Created with sketchtool.</desc>
    <defs>
        <circle id="path-1" cx="35" cy="35" r="35"></circle>
        <filter x="-37.1%" y="-31.4%" width="174.3%" height="174.3%" filterUnits="objectBoundingBox" id="filter-2">
            <feOffset dx="0" dy="4" in="SourceAlpha" result="shadowOffsetOuter1"></feOffset>
            <feGaussianBlur stdDeviation="8" in="shadowOffsetOuter1" result="shadowBlurOuter1"></feGaussianBlur>
            <feColorMatrix values="0 0 0 0 0.254901961   0 0 0 0 0.458823529   0 0 0 0 0.647058824  0 0 0 0.24 0" type="matrix" in="shadowBlurOuter1"></feColorMatrix>
        </filter>
        <linearGradient x1="0%" y1="0%" x2="149.460671%" y2="71.875%" id="linearGradient-3">
            <stop stop-color="#00EAF8" offset="0%"></stop>
            <stop stop-color="#6D42EF" offset="100%"></stop>
        </linearGradient>
    </defs>
    <g id="Symbols" stroke="none" stroke-width="1" fill="none" fill-rule="evenodd">
        <g id="ic/web">
            <g id="Group" transform="translate(15.000000, 15.000000)">
                <g id="Oval" fill-rule="nonzero">
                    <use fill="black" fill-opacity="1" filter="url(#filter-2)" xlink:href="#path-1"></use>
                    <use fill="#FFFFFF" fill-rule="evenodd" xlink:href="#path-1"></use>
                </g>
                <path d="M51.3125,41.8125 L34.71875,41.8125 C34.2527597,41.8125 33.875,41.4347403 33.875,40.96875 C33.875,40.5027597 34.2527597,40.125 34.71875,40.125 L51.3125,40.125 L51.3125,37.875 L34.71875,37.875 C34.2527597,37.875 33.875,37.4972403 33.875,37.03125 C33.875,36.5652597 34.2527597,36.1875 34.71875,36.1875 L51.3125,36.1875 L51.3125,33.9375 L34.71875,33.9375 C34.2527597,33.9375 33.875,33.5597403 33.875,33.09375 C33.875,32.6277597 34.2527597,32.25 34.71875,32.25 L51.3125,32.25 L51.3125,28.3125 L24.03125,28.3125 C23.5652597,28.3125 23.1875,27.9347403 23.1875,27.46875 C23.1875,27.0027597 23.5652597,26.625 24.03125,26.625 L51.3125,26.625 L51.3125,22.6875 L18.6875,22.6875 L18.6875,52.5 L51.3125,52.5 L51.3125,41.8125 Z M17.8093355,21 L52.1906645,21 C52.6368384,21 53,21.3630221 53,21.809196 L53,53.3781645 C53,53.8243384 52.6368384,54.1875 52.1906645,54.1875 L17.8093355,54.1875 C17.3630221,54.1875 17,53.8243384 17,53.3781645 L17,21.809196 C17,21.3630221 17.3630221,21 17.8093355,21 Z M24.3125,24.6568322 C24.3125,24.8779218 24.2229562,25.0952271 24.0668734,25.2528571 C23.907005,25.4103416 23.6891879,25.5 23.4678764,25.5 C23.2468561,25.5 23.0296214,25.410196 22.8717914,25.2537304 C22.7146894,25.0952271 22.625,24.8780673 22.625,24.6568322 C22.625,24.4351604 22.7145438,24.2174185 22.8707722,24.0594974 C23.0293302,23.9020129 23.2465649,23.8125 23.4678764,23.8125 C23.6896247,23.8125 23.9074418,23.9020129 24.0657086,24.0580419 C24.2229562,24.2174185 24.3125,24.435306 24.3125,24.6568322 Z M26.3154423,25.2524496 C26.1591762,25.4095852 25.9415093,25.5 25.718459,25.5 C25.4956997,25.5 25.2781783,25.4095852 25.1219122,25.2520135 C24.965064,25.0954593 24.875,24.8778534 24.875,24.6555959 C24.875,24.4343559 24.965064,24.217186 25.1220577,24.0596143 C25.2775964,23.9027694 25.4951177,23.8125 25.718459,23.8125 C25.9413638,23.8125 26.1588852,23.902624 26.3155878,24.0597597 C26.472436,24.217186 26.5625,24.4343559 26.5625,24.6555959 C26.5625,24.8778534 26.472436,25.0954593 26.3154423,25.2524496 Z M27.967877,25.5 C27.7474457,25.5 27.5302153,25.4103416 27.3719122,25.2540215 C27.2146275,25.0952271 27.125,24.8776307 27.125,24.6556678 C27.125,24.4347238 27.214482,24.2174185 27.3706027,24.0594974 C27.5297788,23.9020129 27.7470092,23.8125 27.967877,23.8125 C28.1897633,23.8125 28.4074302,23.9020129 28.5650058,24.058333 C28.7225815,24.2166907 28.8125,24.4341416 28.8125,24.6556678 C28.8125,24.8782129 28.722436,25.0961004 28.5654423,25.2532937 C28.4069937,25.410196 28.1893268,25.5 27.967877,25.5 Z" id="Combined-Shape" fill="url(#linearGradient-3)"></path>
            </g>
        </g>
    </g>
</svg>
